X:1
T:O quam gloriosum - Byrd
T:James Gibb editions
T:#
%%score { 1 | 2 } 3 4 5
L:1/8
Q:1/4=90
M:4/4
K:F
V:1 treble nm="Soprano I" snm="S"
V:2 treble 
V:3 treble nm="Alto" snm="A"
V:4 treble-8 nm="Tenor" snm="T"
V:5 bass nm="Bass" snm="B"
V:1
"^O quam gloriosum""^William Byrd\n(1543-1623)" z4{[Cf][Cf]} F4- | F2 G2 A2 B2 | c4 A2 A2 | %3
w: O|* quam glo- ri-|o- sum est|
 d4 c2 f2 | (e2 A2 c4 | B2 A2 F2 A2- |[M:4/4] A2 GF) E2 z2 | z2 e2 c2 c2 | f3 e (d3 c | B2 A4 G2) | %10
w: re- gnum, est|re\- * *||* * * gnum,|in quo cum|Chri- sto gau\- *||
 A6 (d2- | d2 G2) c4 | z4 z2 c2 | A2 A2 f4- | f2 e2 (d2 c2 | _e2 d4 c2- | c2 G2 d2 c2) | %17
w: dent, gau\-|* * dent,|in|quo cum Chri\-|* sto gau\- *|||
 c4 z2 f2- | f2 e2 f4 | c2 (d3 cAB | c8) | c8 | z8 | z4 z2 c2 | c2 c2 B2 A2 | c6 A2 | d2 c3 B A2 | %27
w: dent o\-|* mnes san-|cti, san\- * * *||cti,||a-|mi- cti sto- lis|al\- *||
 G2 F3 GAF | (G4 F4 | z8 | z4 z2 f2 | f2 f2 e2 c2 | (e2 d3 c c2- | c2 =B2) c4- | c4 z2 G2 | %35
w: |* bis,||a-|mi- cti sto- lis|al\- * * *|* * bis|* se-|
 A2 G2 B2 A2- | A2 G2 c4 | F2 A4 G2 | A3 G/F/ EF G2- | G2) c2 c4 | z2 d2 e2 c2 | f4 c4 | z4 z2 d2 | %43
w: quun- tur A- gnum|* quo- cun-|que i- e-|rit, i\- * * * *|* e- rit,|se- quun- tur|A- gnum|quo-|
 f2 e2 d3 d | c4 d4 | d4 c4 | z2 c2 _e2 d2- | d2 c3 B G2 | A3 B A2 G2- | GF F4 E2 | A2 GF ED C2 | %51
w: cun- que i- e-|rit, i-|e- rit,|quo- cun- que|* i- e\- *||||
 F4 z2 C2 | F2 G2 A4 | G2 c4 =B2 | (c2 A2) G4 | F4 G2 (A2- | A2 G3 F) F2 | z2 G2 c2 d2 | %58
w: rit, lau-|dan- tes De-|um et di-|cen\- * tes,|et di- cen\-|* * * tes,|lau- dan- tes|
 e4 c2 f2- | f2 e2 (f2 d2) | c4 z4 | z2 G4 E2 | (G3 F) E2 G2 | c2 d2 e3 c | e2 (d3 c) (c2- | %65
w: De- um et|* di- cen\- *|tes,|et di-|cen\- * tes, lau|dan- tes De- um|et di\- * cen\-|
 c2 =B2) c4 | z2 c4 A2 | c8- | c8 | !fermata!A8 || z8 | z8 | z4 F4- | F2 E2 A3 A | F4 D4 | G4 F4 | %76
w: * * tes,|et di-|cen\-||tes:|||Be\-|* ne- dic- ti-|o et|cla- ri-|
 E4 z4 | z4 c4 | _e2 d3 c- c2 | c2 =B2 c4 | z4 z2 e2 | f2 d2 f3 e | d2 e2 c2 f2- | f (e d4 ^c2) | %84
w: tas|et|sa- pi- en\- *|* ti- a,|et|gra- ti- a- rum|ac- ti- o, ac\-|* ti\- * *|
 d2 e3 d d2- | d2 ^c2 (d3 =c | B2 A4) G2 | A4 z2 (A2 | c2 A3) G E2 | ^F4 =F3 E | D4 z4 | z2 d4 c2 | %92
w: o, gra- ti- a\-|* rum ac\- *|* * ti-|o, ac\-|* * ti\- *|o, ac- ti-|o,|ho- nor,|
 (f3 e) d4 | z4 z2 A2 | c3 B A2 A2 | B3 A (G2 A2 | c2 A2) A4- | A4 B4 | G4 A4- | A4 A4- | A4 z4 | %101
w: vir\- * tus|et|for- ti- tu- do|De- o no\- *|* * stro,|* De-|o no\-|* stro||
 z8 | z8 | z2 F2 c3 c | A2 d4 c2 | f3 e (cd e2- | ed d3 c c2- | c2 =B2) c4- | c4 z4 | z4 z2 F2 | %110
w: ||in sae- cu-|la sae- cu-|lo- rum. A\- * *||* * men,||in|
 c3 c A2 d2- | d2 c2 f4 | e4 f4 | F4 z2 A2- | A2 G2 (B3 A) | G2 (F3 GAB) | c4 z2 (f2 | %117
w: sae- cu- la sae\-|* cu- lo-|rum. A-|men, sae\-|* cu- lo\- *|rum. A\- * * *|men, A\-|
 e2 d c2 B G2) | A4 z2[Q:1/4=89] f2- | %119
w: |men, A\-|
[Q:1/4=87] f[Q:1/4=87]_e[Q:1/4=86]d[Q:1/4=85]c[Q:1/4=84] B2[Q:1/4=82] A2 | %120
w: |
[Q:1/4=81] d2[Q:1/4=80] G[Q:1/4=79]A[Q:1/4=78] B2[Q:1/4=76] F2 |[Q:1/4=76] !fermata!F8 |] %122
w: |men.|
V:2
 z8 | z8 | z4 F4- | F2 G2 A2 B2 | c4 A2 A2 | (d3 c AB c2- |[M:4/4] (c2 =B2 c2 _BA | G4) A4- | %8
w: ||O|* quam glo- ri-|o- sum est|re\- * * * *||* gnum,|
 A4 z4 | z4 z2 e2 | c2 c2 f3 e | (d2 e3 d c2- | c2 =B2) c4 | (c2 F3 G/A/ B2) | B4 z4 | %15
w: |in|quo cum Chri- sto|gau\- * * *|* * dent,|gau\- * * * *|dent,|
 z2 G2 F2 F2 | c4 B2 (A2- | ABcB AGFG | AB G2) A4 | z2 f4 d2 | (e2 c3 B G2) | A8 | z2 c2 c2 c2 | %23
w: in quo cum|Chri- sto gau\-||* * * dent|o- mnes|san\- * * *|cti,|a- mi- cti|
 B2 A2 c4 | G2 (A3 G F2- | F2 E2) F4- | F8 | z2 f2 f2 f2 | e2 d2 f4 | c2 d3 c B2- | B2 AG) A4 | %31
w: sto- lis al-|bis, al\- * *|* * bis,||am- ic- ti|sto- lis al-|bis, al\- * *|* * * bis,|
 z4 z2 G2 | G2 G2 F2 E2 | G4 E4 | z2 c2 e4 | c4 f4 | e4 z2 c2 | f2 e2 d3 d | c8- | c4 z2 G2 | %40
w: a-|mi- cti sto- lis|al- bis|se- quun-|tur A-|gnum quo-|cun- que i- e-|rit,|* se-|
 B2 A2 c4 | F4 A2 c2 | B2 A4 G2 | A2 A2 B2 A2- | A2 G4 (FE) | D4 z2 G2 | B2 A2 G3 F | (DE F4) E2 | %48
w: quun- tur A-|gnum quo- cun-|que i- e-|rit, quo- cun- que|* i- e\- *|rit, quo-|cun- que i\- *|* * * e-|
 F2 c4 c2 | c4 z4 | z8 | z2 F2 B2 c2 | d4 c2 f2- | f2 e2 (f2 d2) | e2 c2 (d2 c2- | c2 =B2) c4- | %56
w: rit, i- e-|rit,||lau- dan- tes|De- um et|* di- cen\- *|tes, di- cen\- *|* * tes,|
 c8 | c4 z4 | z2 c4 =B2 | (c3 B A2 GF) | E2 A2 c3 d | e2 d3 (c c2- | c2) =B2 c4 | C2 G4 E2 | %64
w: ||et di-|cen\- * * * *|tes, lau- dan- tes|De- um et *|* di- cen-|tes, et di-|
 (G3 F E3 D) | C2 z2 z2 C2 | F2 G2 A3 F | A2 (G3 F) (F2- | F2 ED E F2 E) | !fermata!F8 || c6 A2 | %71
w: cen\- * * *|tes, lau-|dan- tes De- um|et di\- * cen\-||tes:|Be- ne-|
 d3 d B2 G2- | G2 c4 =B2 | c4 z4 | z8 | z8 | G4 B2 A2- | A G- G4 ^F2 | G8 | z2 d2 f2 e2- | %80
w: dic- ti- o et|* cla- ri-|tas|||et sa- pi\-|* en\- * ti-|a,|et sa- pi\-|
 e d- d4 ^c2 | d8 | z8 | z8 | z8 | z2 e2 f2 d2 | f3 e d2 e2 | c2 f3 e c2 | e2 d4 ^c2 | d2 D2 A3 G | %90
w: * en\- * ti-|a,||||et gra- ti-|a- rum ac- ti-|o, ac\- * *|* * ti-|o, et gra- ti-|
 F2 D2 F2 E2 | D4 z4 | z4 z2 d2- | d2 c2 f4 | e2 c2 f3 e | d2 d2 e3 f | (ed d4 ^c2) | d8 | z8 | %99
w: a- rum ac- ti-|o,|ho\-|* nor, vir-|tus et for- ti-|tu- do De- o|no\- * * *|stro||
 z8 | z2 D2 A3 A | F2 B4 A2 | c3 B (GA B2- | BA AG/F/ G4 | F4) z4 | z8 | z4 z2 C2 | G3 G E2 A2- | %108
w: |in sae- cu-|la sae- cu-|lo- rum. A\- * *||men,||in|sae- cu- la sae\-|
 A2 G2 c2 BA | B4 A4 | (G2 A6) | A4 z2 F2 | c3 c A2 d2- | d2 (c2 f4) | e2 e2 d4 | z2 d4 c2 | %116
w: * cu- lo- rum. A\-|* men,|A\- *|men, in|sae- cu- la sae\-|* cu\- *|rum. A- men,|sae- cu-|
 _e4 d2 c2- | c2 BA G2 (c2- | cBAG) F4 | z2 f3 _edc | BABc d_e d2- | d2 c2 !fermata!c4 |] %122
w: lo- rum. A\-|* * * men, A\-|* * * * men,|A\- * * *||* * men.|
V:3
{[G,c]} B,6 C2 | D2 E2 F2 D2 | E2 (F3 EDC) | B,4 F2 D2 | (C2 F3 G A2 | DE F3 E C2 | %6
w: O quam|glo- ri- o- sum|est re\- * * *|* gnum, est|re\- * * *||
[M:4/4] D4 C2 D2) | E4 z2 A2 | F2 D2 F3 E | (D2 C2 B,2 C2 | A,4) D4 | z2 E2 C2 C2 | F4 E4 | %13
w: |gnum, in|quo cum Chri- sto|gau\- * * *|* dent,|in quo cum|Chri- sto|
 (F2 D3 E) F2 | z2 G2 F2 F2 | B6 A2 | (G3 F DE F2) | C8 | z2 c4 F2 | (A2 B2) A2 F2- | %20
w: gau\- * * dent,|in quo cum|Chri- sto|gau\- * * * *|dent|o- mnes|san\- * cti, o\-|
 F (E F2) (G2 E2) | F4 z2 F2 | F2 F2 E2 C2 | (G2 F3 ECD) | E4 (F4 | G4) A4 | z4 c2 c2 | %27
w: * mnes * san\- *|cti, a-|mi- cti sto- lis|al\- * * * *|bis, al\-|* bis,|a- mi-|
 c2 B2 A2 (c2- | cG B4 AG | A4) G4 | z2 c2 c2 c2 | B2 A2 c4 | G4 z4 | z2 D2 G2 E2 | A4 G2 C2 | %35
w: cti sto- lis al\-||* bis,|a- mi- cti|sto- lis al-|bis|se- quun- tur|a- gnum quo-|
 F2 E2 D3 D | C4 z2 A,2 | D2 C2 B,3 B, | A,4 z2 C2 | E4 C4 | F4 E4 | z4 z2 C2 | F2 E2 D3 D | %43
w: cun- que i- e-|rit, quo-|cun- que i- e-|rit, se-|quun- tur|A- gnum|quo-|cun- que i- e-|
 C4 z4 | z2 G2 B2 A2 | (GF F4) E2 | F4 z4 | z8 | z2 C2 F2 G2 | A4 G2 c2- | c2 =B2 (c3 _B | %51
w: rit,|quo- cun- que|i\- * * e-|rit,||lau- dan- tes|De- um et|* di- cen\- *|
 A2 B2) F4 | z4 F4 | G4 F4 | (G2 FE D2 G,2) | D4 z2 C2 | F2 G2 A4 | G2 c4 =B2 | (c3 B/A/ GA F2) | %59
w: * * tes,|lau-|dan- tes|De\- * * * *|um, lau-|dan- tes De-|um et di-|cen\- * * * * *|
 G4 z4 | z2 F4 E2 | (G3 F E2 DC) | D2 G4 E2 | (G3 F E2) G2 | z4 z2 C2 | F2 G2 A3 F | %66
w: tes,|et di-|cen\- * * * *|tes, et di-|cen\- * * tes,|lau-|dan- tes De- um|
 A2 (G3 F) (F2- | F2 ED) C2 C2 | C8 | !fermata!C8 || z4 F4- | F2 D2 G3 G | E2 C2 D3 D | C4 z4 | %74
w: et di\- * cen\-|* * * tes, di-|cen-|tes:|Be\-|* ne- dic- ti-|o et cla- ri-|tas|
 z8 | z8 | z2 C2 D3 C | (B,2 G,2 A,2) A,2 | G,4 z4 | z4 z2 C2 | D2 F2 E3 E | D4 z2 A2 | B2 G2 A4 | %83
w: ||et sa- pi-|en\- * * ti-|a,|et|sa- pi- en- ti-|a, et|gra- ti- a-|
 D4 (A3 G | F2 G3 F D2 | E3) E D4 | z8 | z2 D2 A3 G | E2 F2 E3 E | D4 z2 A2- | A2 G2 A4 | %91
w: rum ac\- *||* ti- o,||et gra- ti-|a- rum ac- ti-|o, ho\-|* nor, vir-|
 A4 z2 A2- | A2 F2 (B3 A) | G4 z2 D2 | A3 G F2 D2 | G3 F (ED C2- | C2 F2) E4 | F4 D2 (G2- | %98
w: tus, ho\-|* nor, vir\- *|tus et|for- ti- tu- do|De- o no\- * *|* * stro,|De- o no\-|
 GFED E2 D2- | D2 ^C2) D2 D2 | F3 F E2 F2 | D2 G2 F3 (E | CDED EF G2- | GF F4 E2) | F4 F3 G | %105
w: |* * stro in|sae- cu- la sae-|cu- lo- rum. A\-|||men, sae- cu-|
 A3 G (EF G2- | GFDE FE ED/C/ | D4) (C3 D | E6) F2 | F8 | z2 C2 F3 F | E4 z2 A2- | A2 G2 c2 F2- | %113
w: lo- rum. A\- * *||* men, *|* A-|men,|in sae- cu-|la sae\-|* cu- lo- rum.|
 F (G A2 F2) D2 | z2 G4 F2 | B4 A4 | z2 (G3 F AG/F/ | GC F4 E2) | F4 (A4 | B4) F4 | z2 (B,2 F4- | %121
w: * A\- * * men,|sae- cu-|lo- rum|A\- * * * *||men, A\-|* men,|A\- *|
 F2 C2) !fermata!C4 |] %122
w: * * men.|
V:4
 z8 | z8 | z8 | z8 | z8 | z4 F4- |[M:4/4][K:treble-8] F2 G2 A2 B2 | c4 A2 A2 | (d3 c Bcde | %9
w: |||||O|* quam glo- ri-|o- sum est|re\- * * * * *|
 f3 e d2) G2 | z2 A2 F2 F2 | B3 A (G2 A2- | A2 GF) G2 A2 | F2 F2 d4- | d2 G2 (B2 F2 | GABc dcAf- | %16
w: * * * gnum,|in quo cum|Chri- sto gau\- *|* * * dent, in|quo cum Chri\-|* sto gau\- *||
 fe/d/ e2) f4 | z2 c4 A2 | c4 F4 | f4 F4 | (G2 A2 G4) | F8 | z8 | z8 | z8 | z2 c2 c2 c2 | %26
w: * * * * dent|o- mnes|san- cti,|o- mnes|san\- * *|cti,||||a- mi- cti|
 B2 A2 c4 | G2 (d3 c A2) | c2 z2 z2 f2 | f2 f2 e2 d2 | f4 c2 c2 | d4 G2 c2- | c2 =B2 (c4 | %33
w: sto- lis al-|bis, al\- * *|bis, a-|mi- cti sto- lis|al- bis, a-|mi- cti sto\-|* lis al\-|
 d4) c4- | c8 | z8 | z8 | z8 | z2 F2 A2 G2 | (c3 B A2 G2- | G2 F2) G4 | z2 d2 f2 e2 | %42
w: * bis|||||se- quun- tur|A\- * * *|* * gnum|quo- cun- que|
 (d2 c2 B3) B | A4 d2 f2- | f2 c2 z2 F2 | B2 A2 G3 G | F4 G2 B2- | B2 F2 B3 B | c8 | z2 F2 B2 c2 | %50
w: i\- * * e-|rit, quo- cun\-|* que, quo-|cun- que i- e-|rit, quo- cun\-|* que i- e-|rit,|lau- dan- tes|
 d4 c2 f2- | f_e (dc de c2- | cB/A/ B2) A2 z F | B2 c2 d4 | c2 f4 e2 | (f2 d2 e2 f2) | %56
w: De- um et|* di- cen\- * * * *|* * * * tes, lau-|dan- tes De-|um et di-|cen\- * * *|
 c2 z G c2 d2 | e4 c2 f2 | e2 (cd ef d2) | c2 c4 =B2 | (c2 F2 A4) | G4 z4 | z2 G2 c3 d | %63
w: tes, lau- dan- tes|De- um et|di- cen\- * * * *|tes, et di-|cen\- * *|tes,|lau- dan- tes|
 e2 d3 (c c2- | c2 =B2 (c3 _B | A2 G2 F4) | c4 c4- | c2 G2 A4- | A2 GF G4) | !fermata!F8 || z8 | %71
w: De- um et *|* di- cen\- *||tes, et|* di- cen\-||tes:||
 z8 | z8 | z2 c4 A2 | d3 d B2 G2- | G2 c4 =B2 | c4 z4 | z8 | z2 B2 c2 _e2 | d3 d c4 | A3 =B c2 A2 | %81
w: ||Be- ne-|dic- ti- o et|* cla- ri-|tas||et sa- pi-|en- ti- a,|sa- pi- en- ti-|
 A8 | z2 e2 f2 d2 | f3 e d2 e2 | d2 z2 z4 | z4 z2 A2 | d3 c B2 c2 | A3 A A2 (A2- | AG F2 A2) A2 | %89
w: a,|et gra- ti-|a- rum ac- ti-|o,|et|gra- ti- a- rum|ac- ti- o, ac\-|* * * * ti-|
 D8 | z2 d4 c2 | f4 e2 A2 | d3 c B2 d2 | G3 A (B2 A2) | A4 z4 | z8 | z4 z2 A2 | d3 c B2 G2 | %98
w: o,|ho- nor,|vir- tus et|for- ti- tu- do|De- o no\- *|stro,||et|for- ti- tu- do|
 c3 B (AG F2 | E4 ^F2 A2 | d3 d c2 d2- | d2 G2 d3 c | (AB c4 B2 | c2 d2) c2 c2- | cd B2) A2 A2- | %105
w: De- o no\- * *|* stro in|sae- cu- la sae\-|* cu- lo- rum.|A\- * * *|* * men, A\-|* * * men, sae\-|
 A2 F2 c3 B | (GA B2) A4 | z4 z2 F2 | c3 c A2 d2- | d2 B2 d2 c2 | (e2 f2 c d2 A | cB A3 GAB | %112
w: * cu- lo- rum.|A\- * * men.|in|sae- cu- la sae\-|* cu- lo- rum.|A\- * * * *||
 cA c2) F4 | z2 A4 F2 | c4 G2 B2- | B2 F2 z2 A2- | A2 G2 B2 A2 | (G2 F2 G4) | F8- | F8 | %120
w: * * * men,|sae- cu-|lo- rum. A\-|* men, sae\-|* cu- lo- rum.|A\- * *|men,||
 (f3 _e dc B2- | B2 AG) !fermata!A4 |] %122
w: A\- * * * *|* * * men.|
V:5
 z8 | z8 | z8 | z8 | z8 | z8 |[M:4/4] z8 | z8 | z4 B,,4- | B,,2 C,2 D,2 E,2 | F,4 D,2 D,2 | %11
w: ||||||||O|* quam glo- ri-|o- sum est|
 (G,3 F, E,2 F,2 | D,4) C,4 | z2 D,2 B,,2 B,,2 | B,6 A,2 | (G,3 F, D,E, F,2) | C,4 z2 F,2- | %17
w: re\- * * *|* gnum,|in quo cum|Chri- sto|gau\- * * * *|dent o\-|
 F,2 E,2 F,4 | C,4 z2 F,2- | F,2 B,,2 (D,4 | C,2 A,,2) C,4 | z2 C2 C2 C2 | B,2 A,2 C4 | %23
w: * mnes san-|cti, o\-|* mnes san\-|* * cti,|a- mi- cti|sto- lis al-|
 G,2 (D2 A,3 B, | C2 A,2 D4 | C4) F,4 | z2 F,2 F,2 F,2 | E,2 D,2 F,4 | C,2 (G,2 D,3 E, | %29
w: bis, al\- * *||* bis,|a- mi- cti|sto- lis al-|bis, al\- * *|
 F,2 D,2 G,4) | F,2 F,2 F,3 E, | D,4 C,4- | C,2 (G,2 A,4 | G,4) C,4 | F,4 C,4 | z8 | z8 | %37
w: |bis, a- mi- cti|sto- lis|* al\- *|* bis,|al- bis|||
 z2 C,2 D,2 B,,2 | F,4 C,4 | z2 C,2 F,2 E,2 | D,3 D, C,4 | D,2 B,,2 A,,4 | z8 | z4 z2 D,2 | %44
w: se- quun- tur|A- gnum|quo- cun- que|i- e- rit,|i- e- rit,||quo-|
 F,2 E,2 D,3 (C, | B,,4 C,4 | D,2) F,2 z2 G,2 | B,2 A,2 G,3 G, | F,2 F,4 E,2 | F,4 z2 C,2 | %50
w: cun- que i- e\-||* rit, quo-|cun- que i- e-|rit, i- e-|rit, lau-|
 F,2 G,2 A,4 | F,2 B,4 A,2 | (B,2 B,,2) F,4 | z8 | z2 A,,2 B,,2 C,2 | D,4 C,2 F,2- | F,2 E,2 (F,4 | %57
w: dan- tes De-|um et di-|cen\- * tes,||lau- den- tes|De- um et|* di- cen\-|
 C,3 D, E,F, D,2) | C,4 z4 | z2 C,2 F,2 G,2 | A,4 F,2 C2- | C2 =B,2 C4 | G,4 z2 C2- | C2 =B,2 C4 | %64
w: |tes,|lau- dan- tes|De- um et|* di- cen-|tes, et|* di- cen-|
 G,4 z4 | z4 z2 F,2- | F,2 E,2 F,4 | C,2 C,4 A,,2 | C,8 | !fermata!F,8 || z8 | z8 | z8 | z4 F,4- | %74
w: tes,|et|* di- cen-|tes, et di-|cen-|tes:||||Be\-|
 F,2 D,2 G,3 G, | E,2 C,2 D,3 D, | C,4 z4 | z8 | z8 | G,4 A,3 G, | (F,2 D,2 A,3) A, | D,8 | z8 | %83
w: * ne- dic- ti-|o et cla- ri-|tas|||et sa- pi-|en\- * * ti-|a,||
 z4 z2 A,2 | B,2 G,2 B,3 A, | G,2 A,2 D,4- | D,4 z2 E,2 | F,2 D,2 F,3 E, | C,2 D,2 A,,4 | %89
w: et|gra- ti- a- rum|ac- ti- o,|* et|gra- ti- a- rum|ac- ti- o,|
 z2 A,4 F,2 | B,4 A,4 | z2 D,2 A,3 G, | F,2 D,2 G,2 F,2 | E,4 D,4 | z8 | z8 | z2 D,2 A,3 G, | %97
w: ho- nor,|vir- tus|et for- ti-|tu- do De- o|no- stro,|||et for- ti-|
 F,2 D,2 G,3 F, | (E,D, C,4 D,2 | A,,4 D,4- | D,4 z4 | z8 | z8 | z4 z2 C,2 | F,3 F, F,4 | %105
w: tu- do De- o|no\- * * *|* stro||||in|sae- cu- la|
 z2 A,4 G,2 | B,3 A, F,G, A,2 | G,4) C,4- | C,4 z4 | B,,4 F,3 F, | C,2 F,4 D,2 | %111
w: sae- cu-|lo- rum. A\- * *|* men,||in sae- cu-|la sae- cu-|
 A,3 G, (F,E, D,2) | C,4 z2 B,,2- | B,,2 A,,2 D,4 | C,4 B,,4- | B,,4 F,4 | (C,4 D,2 F,2) | C,8 | %118
w: lo- rum. A\- * *|men, sae\-|* cu- lo-|rum. A\-|* men,|A\- * *|men,|
 z2 (F,3 _E,D,C, | B,,3 C, D,_E, F,2 | D,3 C, B,,4) | !fermata!F,8 |] %122
w: A\- * * *|||men.|

